assets/images/product-illustrations/folder-with-papers.svg

<svg xmlns="http://www.w3.org/2000/svg" width="161" height="101" fill="none" viewBox="0 0 161 101"><path fill="#FFD7B0" d="M45.6447 15.7813C45.6447 15.7813 40.2699 16.0432 38.4358 19.5997C36.6017 23.1533 18.6432 72.7932 18.6432 72.7932L11.6951 91.7515C11.6951 91.7515 8.8121 97.2813 7.23877 97.939H120.622L132.942 93.5819L137.102 82.2634L151.479 40.5938C151.479 40.5938 152.738 39.0849 151.82 38.0313C150.901 36.9777 145.396 25.3914 145.396 25.3914L119.968 25.1295L121.802 19.9956C121.802 19.9956 121.932 15.9152 117.606 15.6503C113.28 15.3884 45.6417 15.7813 45.6417 15.7813H45.6447Z"/><path fill="#FFC68C" d="M13.0702 88.9863L11.2361 93.7274L7.55615 98.1024L124.753 98.3345C124.753 98.3345 134.19 96.3583 134.321 89.3822L13.0702 88.9863Z"/><path fill="#FFA75A" d="M65.1088 12.7572L23.0317 12.5875C23.0317 12.5875 18.7413 12.4982 18.9013 17.031L19.0613 21.5637L37.5799 20.9804C37.5799 20.9804 41.7102 16.6352 42.4954 16.3405C43.2806 16.0429 65.1058 15.7155 65.1058 15.7155V12.7572H65.1088Z"/><path fill="#FFED8F" d="M16.5928 34.5252C16.5928 34.5252 15.2358 29.6086 12.0239 24.6354C12.0239 24.6354 14.9721 21.3764 23.8224 20.7842C32.6699 20.1919 38.0773 21.0818 38.0773 21.0818L31.3928 38.7574L22.4269 62.1413L19.2358 41.0639L16.5958 34.5282L16.5928 34.5252Z"/><path fill="#FFFAF0" d="M122.229 18.5787L121.737 20.9477L109.055 61.8287L113.186 59.2602L114.922 63.7691L118.593 60.5429L120.231 64.9537L123.509 61.8257C123.509 61.8257 125.002 65.9894 124.803 66.0906C124.605 66.1918 129.014 62.8138 129.014 62.8138L130.329 68.0608L134.32 63.9983L135.731 69.3644C135.731 69.3644 139.746 65.5132 139.594 65.6263C139.443 65.7394 140.851 70.9418 140.851 70.9418L156.537 25.6858C156.537 25.6858 159.485 18.8733 151.621 18.7721C143.757 18.6739 122.226 18.5757 122.226 18.5757L122.229 18.5787Z"/><path fill="#FFF2B2" d="M65.1084 15.7157H104.137C104.137 15.7157 105.316 7.32288 107.085 3.37348C107.085 3.37348 102.465 4.26336 99.6121 6.53419L96.7617 2.48657L91.061 6.93002L86.2432 2.98062L81.4254 6.53419L77.4936 3.07883L72.8743 7.02824L68.5484 3.47467C68.5484 3.47467 65.9914 6.23955 65.1084 15.7187V15.7157Z"/><path fill="#002140" d="M11.5291 92.3435C11.5291 92.3435 6.51576 92.9358 6.41798 86.5161C6.41798 86.5161 1.69799 92.6381 4.05947 97.0816C7.59725 100.537 11.5321 94.2185 11.5321 92.3405L11.5291 92.3435Z"/><path fill="#FFA75A" d="M8.28731 82.4688C8.28731 82.4688 5.14065 88.195 7.50213 90.4688C9.86065 92.7396 11.5318 92.3438 11.5318 92.3438L22.4444 63.0164C22.4444 63.0164 20.7732 49.3885 20.1836 48.1057C20.1836 48.1057 17.1347 69.8319 8.28731 82.4718V82.4688Z"/><path stroke="#002140" stroke-linecap="round" stroke-linejoin="round" d="M11.5704 92.1501C11.5704 92.1501 9.76887 98.0756 6.56591 98.0756C3.07554 97.9715 2.4711 94.6024 3.85481 91.1024C5.92592 85.037 19.1792 66.2989 20.2222 47.031"/><path stroke="#002140" stroke-linecap="round" stroke-linejoin="round" d="M7.5972 83.6561C7.5972 83.6561 3.51719 91.8614 11.6031 92.1531C11.6031 92.1531 34.9039 29.0519 37.5557 21.6472C39.7187 15.4597 45.5202 15.7216 45.5202 15.7216H117.485C123.088 15.7216 121.908 20.165 121.908 20.165L120.139 25.2007"/><path stroke="#002140" stroke-linecap="round" stroke-linejoin="round" d="M6.59863 98.0757H123.973C123.973 98.0757 131.345 97.7781 134 90.9656C136.655 84.1531 154.779 30.6352 156.347 26.6799C157.914 22.7245 157.325 18.6769 151.031 18.6769C145.526 18.4805 122.128 18.6769 122.128 18.6769"/><path stroke="#002140" stroke-linecap="round" stroke-linejoin="round" d="M19.0643 21.5638C19.011 20.9685 18.9487 20.4001 18.8776 19.8673C18.8776 19.8673 17.4999 12.5608 23.2036 12.5608C28.3147 12.5608 44.8332 12.7572 44.8332 12.7572H65.1088"/><path stroke="#002140" stroke-linecap="round" stroke-linejoin="round" d="M12.7852 89.189H134.492"/><path stroke="#002140" stroke-linecap="round" stroke-linejoin="round" d="M37.5588 20.9537C37.5588 20.9537 22.3203 18.287 11.8018 24.6084C11.8018 24.6084 20.5247 37.0965 22.4684 62.7126"/><path stroke="#002140" stroke-linecap="round" stroke-linejoin="round" d="M21.7812 25.9389C21.7812 25.9389 29.645 23.5698 36.1338 25.049"/><path stroke="#002140" stroke-linecap="round" stroke-linejoin="round" d="M22.4688 30.1979C22.4688 30.1979 28.851 28.2753 34.8599 28.9747"/><path stroke="#002140" stroke-linecap="round" stroke-linejoin="round" d="M23.499 34.4539C23.499 34.4539 28.0946 33.07 33.1583 33.0789"/><path stroke="#002140" stroke-linecap="round" stroke-linejoin="round" d="M24.4185 38.6681C24.4185 38.6681 27.6007 37.7098 31.5859 37.3914"/><path stroke="#002140" stroke-linecap="round" stroke-linejoin="round" d="M25.4668 42.7812C25.4668 42.7812 27.3186 42.2217 29.9675 41.8169"/><path stroke="#002140" stroke-linecap="round" stroke-linejoin="round" d="M26.3853 46.793C26.3853 46.793 27.1823 46.552 28.4771 46.2722"/><path stroke="#002140" stroke-linecap="round" stroke-linejoin="round" d="M120.139 25.2009L108.93 61.5968"/><path stroke="#002140" stroke-linecap="round" stroke-linejoin="round" d="M140.937 71.2546L139.44 65.7427L135.837 69.7754L134.403 64.326L130.125 68.2516L129.011 62.82L124.664 66.5105L123.769 61.6683L120.228 64.9599L118.59 60.4153L114.785 64.1653L113.15 59.1653L108.889 61.8022"/><path stroke="#002140" stroke-linecap="round" stroke-linejoin="round" d="M65.1084 15.7157C65.1084 15.7157 65.3691 8.07875 68.5158 3.20673L72.9721 7.02518L77.4936 2.81089L81.4906 6.7603L86.2106 2.67994L90.741 6.92994C90.741 6.92994 96.5395 2.03113 96.741 2.29601C96.9425 2.56089 99.4491 6.37042 99.4491 6.37042C99.4491 6.37042 103.511 3.2097 107.446 3.2097"/><path stroke="#002140" stroke-linecap="round" stroke-linejoin="round" d="M104.042 15.7157C104.042 15.7157 104.302 8.07881 107.449 3.20679"/><path stroke="#002140" stroke-linecap="round" stroke-linejoin="round" d="M71.4668 9.75732H90.5394"/><path stroke="#002140" stroke-linecap="round" stroke-linejoin="round" d="M70.8125 13.052H97.3547"/><path stroke="#002140" stroke-linecap="round" stroke-linejoin="round" d="M117.215 53.2395L139.432 58.5728"/><path stroke="#002140" stroke-linecap="round" stroke-linejoin="round" d="M119.967 44.5491L142.184 49.8824"/><path stroke="#002140" stroke-linecap="round" stroke-linejoin="round" d="M122.522 38.2305L143.363 43.168"/><path stroke="#002140" stroke-linecap="round" stroke-linejoin="round" d="M123.9 33.293L144.741 38.2305"/><path stroke="#002140" stroke-linecap="round" stroke-linejoin="round" d="M125.375 28.3555L146.216 33.293"/></svg>

<svg xmlns="http://www.w3.org/2000/svg" width="161" height="101" fill="none" viewBox="0 0 161 101"><path fill="#ffd7b0" d="M45.645 15.781s-5.375.262-7.21 3.819c-1.833 3.553-19.792 53.193-19.792 53.193l-6.948 18.958s-2.883 5.53-4.456 6.188h113.383l12.32-4.357 4.16-11.319 14.377-41.67s1.259-1.508.341-2.562c-.919-1.053-6.424-12.64-6.424-12.64l-25.428-.261 1.834-5.134s.13-4.08-4.196-4.346c-4.326-.262-71.964.131-71.964.131z"/><path fill="#ffc68c" d="m13.07 88.986-1.834 4.741-3.68 4.375 117.197.233s9.437-1.977 9.568-8.953z"/><path fill="#ffa75a" d="m65.109 12.757-42.077-.17s-4.29-.089-4.13 4.444l.16 4.533 18.518-.584s4.13-4.345 4.915-4.64c.786-.297 22.61-.624 22.61-.624v-2.959z"/><path fill="#ffed8f" d="M16.593 34.525s-1.357-4.916-4.57-9.89c0 0 2.95-3.259 11.8-3.85 8.847-.593 14.254.297 14.254.297l-6.684 17.675-8.966 23.384-3.191-21.077-2.64-6.536z"/><path fill="#fffaf0" d="m122.229 18.579-.492 2.369-12.682 40.88 4.131-2.568 1.736 4.51 3.671-3.227 1.638 4.41 3.278-3.127s1.493 4.163 1.294 4.265c-.198.1 4.211-3.277 4.211-3.277l1.315 5.247 3.991-4.063 1.411 5.366s4.015-3.85 3.863-3.738 1.257 5.316 1.257 5.316l15.686-45.256s2.948-6.813-4.916-6.914c-7.864-.098-29.395-.196-29.395-.196z"/><path fill="#fff2b2" d="M65.108 15.716h39.029s1.179-8.393 2.948-12.343c0 0-4.62.89-7.473 3.161l-2.85-4.047L91.06 6.93l-4.818-3.95-4.818 3.554-3.931-3.455-4.62 3.95-4.326-3.554s-2.557 2.765-3.44 12.244z"/><path fill="#002140" d="M11.53 92.344s-5.014.592-5.112-5.828c0 0-4.72 6.122-2.359 10.566 3.538 3.455 7.473-2.863 7.473-4.741z"/><path fill="#ffa75a" d="M8.287 82.469s-3.146 5.726-.785 8c2.359 2.27 4.03 1.875 4.03 1.875l10.912-29.328s-1.67-13.627-2.26-14.91c0 0-3.05 21.726-11.897 34.366z"/><path stroke="#002140" stroke-linecap="round" stroke-linejoin="round" d="M11.57 92.15s-1.801 5.926-5.004 5.926c-3.49-.104-4.095-3.474-2.711-6.974 2.07-6.065 15.324-24.803 16.367-44.071"/><path stroke="#002140" stroke-linecap="round" stroke-linejoin="round" d="M7.597 83.656s-4.08 8.205 4.006 8.497c0 0 23.3-63.101 25.953-70.506 2.163-6.187 7.964-5.925 7.964-5.925h71.965c5.603 0 4.423 4.443 4.423 4.443l-1.769 5.036"/><path stroke="#002140" stroke-linecap="round" stroke-linejoin="round" d="M6.599 98.076h117.374s7.372-.298 10.027-7.11 20.779-60.33 22.347-64.286c1.567-3.956.978-8.003-5.316-8.003-5.505-.197-28.903 0-28.903 0M19.064 21.564a40 40 0 0 0-.186-1.697s-1.378-7.306 4.326-7.306c5.11 0 21.63.196 21.63.196h20.275M12.785 89.189h121.707"/><path stroke="#002140" stroke-linecap="round" stroke-linejoin="round" d="M37.559 20.954s-15.239-2.667-25.757 3.654c0 0 8.723 12.488 10.666 38.105"/><path stroke="#002140" stroke-linecap="round" stroke-linejoin="round" d="M21.781 25.939s7.864-2.37 14.353-.89m-13.665 5.149s6.382-1.923 12.39-1.223m-11.36 5.479s4.596-1.384 9.66-1.375m-8.74 5.589s3.182-.958 7.167-1.277m-6.119 5.39s1.852-.56 4.5-.964m-3.582 4.976s.797-.241 2.092-.52M120.139 25.2 108.93 61.598m32.007 9.657-1.497-5.512-3.603 4.032-1.434-5.449-4.278 3.926-1.114-5.432-4.347 3.69-.895-4.842-3.541 3.292-1.638-4.545-3.805 3.75-1.635-5-4.261 2.637M65.108 15.716s.261-7.637 3.408-12.51l4.456 3.82 4.522-4.215 3.997 3.95 4.72-4.081 4.53 4.25s5.799-4.899 6-4.634 2.708 4.074 2.708 4.074 4.062-3.16 7.997-3.16m-3.404 12.506s.26-7.637 3.407-12.51M71.467 9.757h19.072m-19.726 3.295h26.542m19.86 40.188 22.217 5.333M119.967 44.55l22.217 5.332M122.522 38.23l20.841 4.938M123.9 33.293l20.841 4.938m-19.366-9.875 20.841 4.937"/></svg>
